X:53
T:Hoof and Horn
M:6/8
L:1/8
C: Paul Gitlitz 1999
R:Jig
B:Giblitz Fancy
N:Written for the goat footed god in all his reveling splendor.
K:Gm
D|:"Gm"G2D "F"F2D|"Gm"G2A "Bb"B3|"Bb"BcB "F"A2A|"Gm"GAG "Dm"({FG}F2)D|! 
"Gm"G2D "F"F2D|"Gm"G2A "Bb"B3|"Dm"dcA GFD|"Gm"G,3-G,2D:|!
|"Gm"G2FG2D|G2FG2D|G2B"Dm"A2G|"F"FDF "Gm"G2D|! 
"Gm"G2BG2D|G2dG2D|G2d "F"c2B|"Dm"AGF "Gm"G2D|!
"Gm"dDD "F"cDD|"Bb"BDD "Dm"ADD|"Gm"G2B"Dm"A2G|"F"FDF "Gm"G2D|! 
"Gm"dDD "F"cDD|"Bb"BDD "Dm"ADD|"Gm"G2B"F"A2G|"Dm"D=EF "Gm"G2|]
